X:1
T:Title
%%score { ( 1 2 ) | ( 3 4 ) }
L:1/8
M:4/4
K:F
V:1 treble nm="Grand Piano"
V:2 treble 
V:3 bass 
V:4 bass 
V:1
 z4 z2[Q:1/4=100] C2 | F2 F>F F2 F>G | A>A A>A A2 A>A | [EB]2 [EB]2 [EB]>[FB] [Gc]>[EB] | A6 A>B | %5
 c2 c2 c2 A2 |[M:9/8] [DFB]>[DFA][DFB]- [DFB]/[CFc]/ [Fd]2- [Fd]Bd | %7
[M:4/4] [Ec]>[EB] [FA]>[GB] [FA]2 [EG]2 |[M:3/4] F6 |[M:1/4] A>B |[M:4/4] c6 z2 | F6 z2 | %12
 A2 A2 A>[Bd] [Ac]>[FA] | [EG]6 z2 | c6 z2 | d6 z2 | [Ec]>[EB] [FA]>[GB] [FA]2 [EG]2 |[M:3/4] F6 |] %18
V:2
 z4 z2 z G, | x8 | x8 | x8 | x8 | x8 |[M:9/8] z3 z3 z F2 |[M:4/4] x8 |[M:3/4] x6 |[M:1/4] x2 | %10
[M:4/4] z2 A,>A, A,2 A>G | z2 B,>B, B,2 [DF]>[EG] | x8 | z2 C>C C2 A>B | z2 A,>A, A,2 A>c | %15
 z2 B,>B, B,2 [Ff]>[Fd] | x8 |[M:3/4] x6 |] %18
V:3
 z4 z2 F,2 | [F,A,D]2 [F,A,C]>[F,A,C] [F,A,C]2 [F,A,C]>[F,B,C] | %2
 [F,CF]>[F,CF] [F,CF]>[F,CF] [F,CF]2 [F,CF]>[F,CF] | [C,C]2 [C,C]2 [C,C]>[C,C] [C,C]>[C,C] | %4
 [F,CF]6 [F,CF]>[F,B,F] | [F,A,F]2 [F,A,F]2 [F,A,F]2 [F,CF]2 | %6
[M:9/8] B,,>B,,B,,- B,,/B,,/ [B,,B,]2- [B,,B,] [B,,B,]2 | %7
[M:4/4] [C,G,]>[C,G,] [C,C]>[C,C] [C,C]2 [C,B,]2 |[M:3/4] [F,A,]6 |[M:1/4][K:treble] F>E | %10
[M:4/4] F6[K:bass][K:treble] z2 | D6[K:bass] z2 | [F,CF]2 [F,CF]2 [F,CF]>[F,C] [F,C]>[F,C] | %13
 [C,C]2 C,>C, C,2[K:treble] F>E | F6[K:bass][K:treble] z2 | F6[K:bass] z2 | %16
 [C,G,]>[C,G,] [C,C]>[C,C] [C,C]2 [C,B,]2 |[M:3/4] [F,A,]6 |] %18
V:4
 x8 | x8 | x8 | x8 | x8 | x8 |[M:9/8] x9 |[M:4/4] x8 |[M:3/4] x6 |[M:1/4][K:treble] x2 | %10
[M:4/4] z2[K:bass] F,>F, F,2[K:treble] F>E | z2[K:bass] B,,>B,, B,,2 [B,,B,]>[B,,B,] | x8 | %13
 x6[K:treble] x2 | z2[K:bass] F,>F, F,2[K:treble] F>F | z2[K:bass] B,,>B,, B,,2 [B,,B,]>[B,,B,] | %16
 x8 |[M:3/4] x6 |] %18

